X:31
T:T020C- Blarney Castle (Johnny McGill/ Black Rogue)
S:Riley's Flute Melodies (1814), and somewhat simpler
S:in 'The Irish Fair', 1772
Q:1/4=120
L:1/8
M:6/8
K:Dm
d|cAA A3/2G/F|cAA A3/2f/e/d/|cAA A3/2B/A/G/|FDDD2::de|\
f3g3|afd cBA|f3g3|a/f/dd >d2f/g/|afa geg|fdd d3/2f/e/d/|\
cAA A3/2B/A/G/|FDDD2:|]

